packages/katcn/src/icons/svg/devices.svg

<svg width="24" height="25" viewBox="0 0 24 25" fill="none" xmlns="http://www.w3.org/2000/svg">
<path d="M20.2 17.712H19.2C18.6 17.712 18.2 17.312 18.2 16.712C18.2 16.112 18.6 15.712 19.2 15.712H20.2C20.6 15.712 21 15.412 21 15.012V7.01201C21 6.61201 20.7 6.31201 20.2 6.31201H3.8C3.3 6.31201 3 6.61201 3 7.01201V15.012C3 15.412 3.3 15.712 3.8 15.712H4.8C5.4 15.712 5.8 16.112 5.8 16.712C5.8 17.312 5.4 17.712 4.8 17.712H3.8C2.3 17.712 1 16.512 1 15.012V7.01201C1 5.51201 2.2 4.31201 3.8 4.31201H20.3C21.8 4.31201 23 5.51201 23 7.01201V15.012C23 16.512 21.8 17.712 20.2 17.712Z" fill="black"/>
<path d="M15.5 20.312H8.50001C7.80001 20.312 7.10001 19.912 6.80001 19.312C6.50001 18.712 6.50001 17.912 7.00001 17.312L10.5 12.512C11.2 11.512 12.8 11.512 13.5 12.512L17 17.312C17.4 17.912 17.5 18.612 17.2 19.312C16.9 20.012 16.2 20.312 15.5 20.312ZM8.70001 18.312H15.3L12 13.812L8.70001 18.312Z" fill="black"/>
</svg>

<svg xmlns="http://www.w3.org/2000/svg" fill="none" viewBox="0 0 24 25"><path fill="#000" d="M20.2 17.712h-1c-.6 0-1-.4-1-1s.4-1 1-1h1c.4 0 .8-.3.8-.7v-8c0-.4-.3-.7-.8-.7H3.8c-.5 0-.8.3-.8.7v8c0 .4.3.7.8.7h1c.6 0 1 .4 1 1s-.4 1-1 1h-1c-1.5 0-2.8-1.2-2.8-2.7v-8c0-1.5 1.2-2.7 2.8-2.7h16.5c1.5 0 2.7 1.2 2.7 2.7v8c0 1.5-1.2 2.7-2.8 2.7"/><path fill="#000" d="M15.5 20.312h-7c-.7 0-1.4-.4-1.7-1s-.3-1.4.2-2l3.5-4.8c.7-1 2.3-1 3 0l3.5 4.8c.4.6.5 1.3.2 2s-1 1-1.7 1m-6.8-2h6.6l-3.3-4.5z"/></svg>
